X: 8591
T: Cronin's
R: reel
M: 4/4
K: Cmajor
|:CB,CD EG ~G2|cded cAAG|AcGc Aa ~a2|gecd ed ~d2|
C3 D EG ~G2|cded cAAG|AcGc Aa ~a2|gedf ec ~c2:|
|:g^fga ge ~e2|fedc ec ~c2|AcGc Aa ~a2|gecd ed ~d2|
g^fga ge ~e2|fedc ec ~c2|AcGc Aa ~a2|gedf ec ~c2:|

